static/assets/liquids/nitrogen.svg

<?xml version="1.0" encoding="UTF-8" standalone="no"?>
<!-- Created with Inkscape (http://www.inkscape.org/) -->

<svg
   version="1.1"
   id="svg2443"
   width="32"
   height="32"
   viewBox="0 0 32 32"
   sodipodi:docname="nitrogen.svg"
   inkscape:version="1.2 (dc2aedaf03, 2022-05-15)"
   xmlns:inkscape="http://www.inkscape.org/namespaces/inkscape"
   xmlns:sodipodi="http://sodipodi.sourceforge.net/DTD/sodipodi-0.dtd"
   xmlns="http://www.w3.org/2000/svg"
   xmlns:svg="http://www.w3.org/2000/svg">
  <defs
     id="defs2447" />
  <sodipodi:namedview
     id="namedview2445"
     pagecolor="#505050"
     bordercolor="#eeeeee"
     borderopacity="1"
     inkscape:showpageshadow="0"
     inkscape:pageopacity="0"
     inkscape:pagecheckerboard="0"
     inkscape:deskcolor="#505050"
     showgrid="false"
     inkscape:zoom="25.4375"
     inkscape:cx="16.019656"
     inkscape:cy="16.019656"
     inkscape:window-width="1920"
     inkscape:window-height="1001"
     inkscape:window-x="-9"
     inkscape:window-y="-9"
     inkscape:window-maximized="1"
     inkscape:current-layer="g2449" />
  <g
     inkscape:groupmode="layer"
     inkscape:label="Image"
     id="g2449">
    <g
       id="g2453">
      <path
         style="fill:#c6ace8;fill-opacity:1"
         d="M 5.125,8.625 Q 5.25,8.25 5.625,8.125 L 6,8 5.71875,8.09375 5.4375,8.1875 5.625,8.125 Q 5.8125,8.0625 5.9375,7.9375 L 6.0625,7.8125 6,7.875 5.9375,7.9375 6.09375,8.34375 Q 6.25,8.75 6.5,9 6.75,9.25 7,9.5 7.25,9.75 7.5,10 q 0.25,0.25 0.5,0.5 0.25,0.25 0.5,0.5 0.25,0.25 0.5,0.5 0.25,0.25 0.5,0.5 0.25,0.25 0.421875,0.671875 l 0.171875,0.421875 0.04687,-0.07813 0.04687,-0.07813 -0.09375,0.15625 Q 10,13.25 10,13.5 V 13.75 13.375 13 13.5 q 0,0.5 0,1 0,0.5 0,1 0,0.5 0,1 0,0.5 0,1 0,0.5 0.125,0.875 Q 10.25,18.75 10.5,19 10.75,19.25 10.875,19.625 11,20 11.125,20.375 11.25,20.75 11.5,21 q 0.25,0.25 0.5,0.5 0.25,0.25 0.5,0.5 0.25,0.25 0.5,0.5 0.25,0.25 0.5,0.5 0.25,0.25 0.5,0.5 0.25,0.25 0.625,0.375 Q 15,24 15.375,24.125 15.75,24.25 16,24.5 16.25,24.75 16.625,24.875 17,25 17.5,25 q 0.5,0 1,0 0.5,0 1,0 0.5,0 0.875,-0.125 Q 20.75,24.75 21,24.5 21.25,24.25 21.625,24.125 22,24 22.375,24.125 22.75,24.25 23,24.5 q 0.25,0.25 0.5,0.5 0.25,0.25 0.375,0.625 0.125,0.375 0,0.75 Q 23.75,26.75 23.5,27 23.25,27.25 23,27.5 22.75,27.75 22.375,27.875 22,28 21.625,28.125 21.25,28.25 21,28.5 20.75,28.75 20.375,28.875 20,29 19.625,29.125 19.25,29.25 19,29.5 18.75,29.75 18.375,29.875 18,30 17.5,30 17,30 16.5,30 16,30 15.5,30 15,30 14.625,29.875 14.25,29.75 14,29.5 13.75,29.25 13.375,29.125 13,29 12.5,29 12,29 11.625,28.875 11.25,28.75 11,28.5 10.75,28.25 10.375,28.125 10,28 9.625,27.875 9.25,27.75 9,27.5 8.75,27.25 8.5,27 8.25,26.75 8,26.5 7.75,26.25 7.5,26 7.25,25.75 7,25.5 6.75,25.25 6.5,25 6.25,24.75 6,24.5 5.75,24.25 5.5,24 5.25,23.75 5.125,23.375 5,23 4.875,22.625 4.75,22.25 4.5,22 4.25,21.75 4.125,21.375 4,21 4,20.5 4,20 3.875,19.625 3.75,19.25 3.5,19 3.25,18.75 3.125,18.375 3,18 3,17.5 3,17 3,16.5 3,16 3,15.5 3,15 3,14.5 3,14 3.125,13.625 3.25,13.25 3.5,13 3.75,12.75 3.875,12.375 4,12 4,11.5 4,11 4.125,10.625 4.25,10.25 4.5,10 4.75,9.75 4.875,9.375 5,9 5.125,8.625"
         id="path2459" />
      <path
         style="fill:#ffffff;fill-opacity:1"
         d="M 12,3.5 Q 12.25,3.25 12.625,3.125 13,3 13.5,3 q 0.5,0 1,0 0.5,0 1,0 0.5,0 1,0 0.5,0 1,0 0.5,0 1,0 Q 19,3 19.375,3.125 19.75,3.25 20,3.5 20.25,3.75 20.625,3.875 21,4 21.375,4.125 21.75,4.25 22,4.5 22.25,4.75 22.625,4.875 23,5 23.375,5.125 23.75,5.25 24,5.5 24.25,5.75 24.5,6 24.75,6.25 25,6.5 25.25,6.75 25.5,7 25.75,7.25 25.875,7.625 26,8 26.125,8.375 26.25,8.75 26.5,9 26.75,9.25 26.875,9.625 27,10 27.125,10.375 27.25,10.75 27.5,11 27.75,11.25 27.875,11.625 28,12 28,12.5 q 0,0.5 0,1 0,0.5 0,1 0,0.5 0,1 0,0.5 -0.125,0.875 Q 27.75,16.75 27.5,17 27.25,17.25 27.125,17.625 27,18 26.875,18.375 26.75,18.75 26.5,19 26.25,19.25 26,19.5 25.75,19.75 25.375,19.875 25,20 24.625,20.125 24.25,20.25 24,20.5 23.75,20.75 23.375,20.875 23,21 22.625,21.125 22.25,21.25 22,21.5 21.75,21.75 21.375,21.875 21,22 20.5,22 q -0.5,0 -1,0 -0.5,0 -1,0 -0.5,0 -1,0 Q 17,22 16.625,21.875 16.25,21.75 16,21.5 15.75,21.25 15.5,21 15.25,20.75 15,20.5 14.75,20.25 14.5,20 14.25,19.75 14,19.5 13.75,19.25 13.5,19 13.25,18.75 13.125,18.375 13,18 13,17.5 13,17 13,16.5 13,16 13,15.5 13,15 13.125,14.625 13.25,14.25 13.5,14 13.75,13.75 13.875,13.375 14,13 14.125,12.625 14.25,12.25 14.5,12 14.75,11.75 15,11.5 15.25,11.25 15.625,11.125 16,11 16.5,11 17,11 17.375,11.125 17.75,11.25 18,11.5 q 0.25,0.25 0.625,0.375 0.375,0.125 0.75,0 Q 19.75,11.75 19.75,11.5 19.75,11.25 19.5,11 19.25,10.75 19,10.5 18.75,10.25 18.5,10 18.25,9.75 18,9.5 17.75,9.25 17.375,9.125 17,9 16.5,9 16,9 15.5,9 15,9 14.625,9.125 14.25,9.25 14,9.5 13.75,9.75 13.375,9.875 13,10 12.625,10.125 12.25,10.25 12,10.5 11.75,10.75 11.5,11 11.25,11.25 11.125,11.625 11,12 10.875,12.375 q -0.125,0.375 -0.5,0.5 L 10,13 10.28125,12.90625 10.5625,12.8125 10.375,12.875 q -0.1875,0.0625 -0.28125,0.21875 L 10,13.25 10.04687,13.17187 10.09374,13.09374 9.921865,12.671865 Q 9.75,12.25 9.5,12 9.25,11.75 9,11.5 8.75,11.25 8.5,11 8.25,10.75 8,10.5 7.75,10.25 7.5,10 7.25,9.75 7,9.5 6.75,9.25 6.5,9 6.25,8.75 6.09375,8.34375 L 5.9375,7.9375 5.875,8 5.8125,8.0625 5.9375,7.9375 Q 6.0625,7.8125 6.125,7.625 L 6.1875,7.4375 6.09375,7.71875 6,8 6.125,7.625 Q 6.25,7.25 6.5,7 6.75,6.75 7,6.5 7.25,6.25 7.5,6 7.75,5.75 8,5.5 8.25,5.25 8.625,5.125 9,5 9.375,4.875 9.75,4.75 10,4.5 10.25,4.25 10.625,4.125 11,4 11.375,3.875 11.75,3.75 12,3.5"
         id="path2457" />
      <path
         style="fill:#000000;fill-opacity:0"
         d="M 0,0.5 V 0 H 0.5 1 1.5 2 2.5 3 3.5 4 4.5 5 5.5 6 6.5 7 7.5 8 8.5 9 9.5 10 10.5 11 11.5 12 12.5 13 13.5 14 14.5 15 15.5 16 16.5 17 17.5 18 18.5 19 19.5 20 20.5 21 21.5 22 22.5 23 23.5 24 24.5 25 25.5 26 26.5 27 27.5 28 28.5 29 29.5 30 30.5 31 31.5 32 V 0.5 1 1.5 2 2.5 3 3.5 4 4.5 5 5.5 6 6.5 7 7.5 8 8.5 9 9.5 10 10.5 11 11.5 12 12.5 13 13.5 14 14.5 15 15.5 16 16.5 17 17.5 18 18.5 19 19.5 20 20.5 21 21.5 22 22.5 23 23.5 24 24.5 25 25.5 26 26.5 27 27.5 28 28.5 29 29.5 30 30.5 31 31.5 32 H 31.5 31 30.5 30 29.5 29 28.5 28 27.5 27 26.5 26 25.5 25 24.5 24 23.5 23 22.5 22 21.5 21 20.5 20 19.5 19 18.5 18 17.5 17 16.5 16 15.5 15 14.5 14 13.5 13 12.5 12 11.5 11 10.5 10 9.5 9 8.5 8 7.5 7 6.5 6 5.5 5 4.5 4 3.5 3 2.5 2 1.5 1 0.5 0 V 31.5 31 30.5 30 29.5 29 28.5 28 27.5 27 26.5 26 25.5 25 24.5 24 23.5 23 22.5 22 21.5 21 20.5 20 19.5 19 18.5 18 17.5 17 16.5 16 15.5 15 14.5 14 13.5 13 12.5 12 11.5 11 10.5 10 9.5 9 8.5 8 7.5 7 6.5 6 5.5 5 4.5 4 3.5 3 2.5 2 1.5 1 0.5 M 17.5,30 Q 18,30 18.375,29.875 18.75,29.75 19,29.5 19.25,29.25 19.625,29.125 20,29 20.375,28.875 20.75,28.75 21,28.5 21.25,28.25 21.625,28.125 22,28 22.375,27.875 22.75,27.75 23,27.5 23.25,27.25 23.5,27 23.75,26.75 23.875,26.375 24,26 23.875,25.625 23.75,25.25 23.5,25 23.25,24.75 23,24.5 22.75,24.25 22.375,24.125 22,24 21.625,24.125 21.25,24.25 21,24.5 20.75,24.75 20.375,24.875 20,25 19.5,25 19,25 18.5,25 18,25 17.5,25 17,25 16.625,24.875 16.25,24.75 16,24.5 15.75,24.25 15.375,24.125 15,24 14.625,23.875 14.25,23.75 14,23.5 13.75,23.25 13.5,23 13.25,22.75 13,22.5 12.75,22.25 12.5,22 12.25,21.75 12,21.5 11.75,21.25 11.5,21 11.25,20.75 11.125,20.375 11,20 10.875,19.625 10.75,19.25 10.5,19 10.25,18.75 10.125,18.375 10,18 10,17.5 q 0,-0.5 0,-1 0,-0.5 0,-1 0,-0.5 0,-1 0,-0.5 0,-1 0,-0.5 0.375,-0.625 0.375,-0.125 0.5,-0.5 Q 11,12 11.125,11.625 11.25,11.25 11.5,11 11.75,10.75 12,10.5 12.25,10.25 12.625,10.125 13,10 13.375,9.875 13.75,9.75 14,9.5 14.25,9.25 14.625,9.125 15,9 15.5,9 16,9 16.5,9 17,9 17.375,9.125 17.75,9.25 18,9.5 q 0.25,0.25 0.5,0.5 0.25,0.25 0.5,0.5 0.25,0.25 0.5,0.5 0.25,0.25 0.25,0.5 0,0.25 -0.375,0.375 Q 19,12 18.625,11.875 18.25,11.75 18,11.5 17.75,11.25 17.375,11.125 17,11 16.5,11 16,11 15.625,11.125 15.25,11.25 15,11.5 14.75,11.75 14.5,12 14.25,12.25 14.125,12.625 14,13 13.875,13.375 13.75,13.75 13.5,14 13.25,14.25 13.125,14.625 13,15 13,15.5 q 0,0.5 0,1 0,0.5 0,1 0,0.5 0.125,0.875 0.125,0.375 0.375,0.625 0.25,0.25 0.5,0.5 0.25,0.25 0.5,0.5 0.25,0.25 0.5,0.5 0.25,0.25 0.5,0.5 0.25,0.25 0.5,0.5 0.25,0.25 0.625,0.375 Q 17,22 17.5,22 q 0.5,0 1,0 0.5,0 1,0 0.5,0 1,0 0.5,0 0.875,-0.125 Q 21.75,21.75 22,21.5 22.25,21.25 22.625,21.125 23,21 23.375,20.875 23.75,20.75 24,20.5 24.25,20.25 24.625,20.125 25,20 25.375,19.875 25.75,19.75 26,19.5 26.25,19.25 26.5,19 26.75,18.75 26.875,18.375 27,18 27.125,17.625 27.25,17.25 27.5,17 27.75,16.75 27.875,16.375 28,16 28,15.5 q 0,-0.5 0,-1 0,-0.5 0,-1 0,-0.5 0,-1 Q 28,12 27.875,11.625 27.75,11.25 27.5,11 27.25,10.75 27.125,10.375 27,10 26.875,9.625 26.75,9.25 26.5,9 26.25,8.75 26.125,8.375 26,8 25.875,7.625 25.75,7.25 25.5,7 25.25,6.75 25,6.5 24.75,6.25 24.5,6 24.25,5.75 24,5.5 23.75,5.25 23.375,5.125 23,5 22.625,4.875 22.25,4.75 22,4.5 21.75,4.25 21.375,4.125 21,4 20.625,3.875 20.25,3.75 20,3.5 19.75,3.25 19.375,3.125 19,3 18.5,3 18,3 17.5,3 17,3 16.5,3 16,3 15.5,3 15,3 14.5,3 14,3 13.5,3 13,3 12.625,3.125 12.25,3.25 12,3.5 11.75,3.75 11.375,3.875 11,4 10.625,4.125 10.25,4.25 10,4.5 9.75,4.75 9.375,4.875 9,5 8.625,5.125 8.25,5.25 8,5.5 7.75,5.75 7.5,6 7.25,6.25 7,6.5 6.75,6.75 6.5,7 6.25,7.25 6.125,7.625 6,8 5.625,8.125 5.25,8.25 5.125,8.625 5,9 4.875,9.375 4.75,9.75 4.5,10 4.25,10.25 4.125,10.625 4,11 4,11.5 4,12 3.875,12.375 3.75,12.75 3.5,13 3.25,13.25 3.125,13.625 3,14 3,14.5 q 0,0.5 0,1 0,0.5 0,1 0,0.5 0,1 Q 3,18 3.125,18.375 3.25,18.75 3.5,19 3.75,19.25 3.875,19.625 4,20 4,20.5 4,21 4.125,21.375 4.25,21.75 4.5,22 4.75,22.25 4.875,22.625 5,23 5.125,23.375 5.25,23.75 5.5,24 5.75,24.25 6,24.5 6.25,24.75 6.5,25 6.75,25.25 7,25.5 7.25,25.75 7.5,26 7.75,26.25 8,26.5 8.25,26.75 8.5,27 8.75,27.25 9,27.5 9.25,27.75 9.625,27.875 10,28 10.375,28.125 10.75,28.25 11,28.5 11.25,28.75 11.625,28.875 12,29 12.5,29 13,29 13.375,29.125 13.75,29.25 14,29.5 14.25,29.75 14.625,29.875 15,30 15.5,30 q 0.5,0 1,0 0.5,0 1,0"
         id="path2455" />
    </g>
  </g>
</svg>

<svg version="1.1" id="svg2443" width="32" height="32" xmlns="http://www.w3.org/2000/svg"><g id="g2449"><g id="g2453"><path style="fill:#c6ace8;fill-opacity:1" d="m5.1 8.6.5-.5L6 8h-.3l-.3.2h.2l.3-.3h.2H6v.4l.5.7.5.5.5.5.5.5.5.5.5.5.5.5q.3.3.4.7l.2.4v-.2.2l-.1.4v.3-.8 4.5l.1.9.4.6.4.6.2.8.4.6.5.5.5.5.5.5.5.5.5.5.6.4.8.2.6.4.6.4.9.1h2l.9-.1q.4-.1.6-.4l.6-.4q.4-.1.8 0t.6.4l.5.5.4.6q.1.4 0 .8t-.4.6l-.5.5-.6.4-.8.2q-.4.1-.6.4l-.6.4-.8.2q-.4.1-.6.4l-.6.4-.9.1h-2l-.9-.1-.6-.4-.6-.4-.9-.1-.9-.1-.6-.4-.6-.4-.8-.2-.6-.4-.5-.5-.5-.5-.5-.5-.5-.5-.5-.5-.5-.5-.5-.5-.4-.6-.2-.8-.4-.6-.4-.6-.1-.9-.1-.9q-.1-.4-.4-.6l-.4-.6-.1-.9v-3l.1-.9.4-.6.4-.6.1-.9.1-.9.4-.6.4-.6.2-.8" id="path2459"/><path style="fill:#fff;fill-opacity:1" d="m12 3.5.6-.4.9-.1h5l.9.1q.4.1.6.4l.6.4.8.2.6.4.6.4.8.2.6.4.5.5.5.5.5.5.4.6.2.8.4.6.4.6.2.8.4.6.4.6.1.9v3l-.1.9q-.1.4-.4.6l-.4.6-.2.8q-.1.4-.4.6l-.5.5-.6.4-.8.2q-.4.1-.6.4l-.6.4-.8.2q-.4.1-.6.4l-.6.4-.9.1h-3l-.9-.1q-.4-.1-.6-.4l-.5-.5-.5-.5-.5-.5-.5-.5-.5-.5-.4-.6-.1-.9v-2l.1-.9.4-.6.4-.6.2-.8.4-.6.5-.5.6-.4.9-.1.9.1.6.4.6.4q.4.1.8 0 .4-.2.4-.4 0-.3-.3-.5l-.5-.5-.5-.5-.5-.5-.6-.4-.9-.1h-1l-.9.1-.6.4-.6.4-.8.2-.6.4-.5.5-.4.6-.2.8-.5.5-.4.1h.3l.3-.2h-.2l-.3.3-.1.2V12.7l-.5-.7-.5-.5-.5-.5-.5-.5-.5-.5-.5-.5-.5-.5q-.3-.3-.4-.7L5.9 8V8l.2-.4v-.2.3L6 8l.1-.4.4-.6.5-.5.5-.5.5-.5.6-.4.8-.2.6-.4.6-.4.8-.2.6-.4" id="path2457"/><path style="fill:#000;fill-opacity:0" d="M0 .5V0h32v32H0V.5M17.5 30l.9-.1q.4-.1.6-.4l.6-.4.8-.2q.4-.1.6-.4l.6-.4.8-.2q.4-.1.6-.4l.5-.5.4-.6q.1-.4 0-.8t-.4-.6l-.5-.5-.6-.4q-.4-.1-.8 0t-.6.4l-.6.4-.9.1h-2l-.9-.1q-.4-.1-.6-.4l-.6-.4-.8-.2-.6-.4-.5-.5-.5-.5-.5-.5-.5-.5-.5-.5-.4-.6-.2-.8-.4-.6-.4-.6-.1-.9v-4q0-.5.4-.6l.5-.5.2-.8.4-.6.5-.5.6-.4.8-.2.6-.4.6-.4.9-.1h1l.9.1.6.4.5.5.5.5.5.5q.3.3.3.5 0 .3-.4.4-.4.1-.8 0l-.6-.4-.6-.4-.9-.1-.9.1-.6.4-.5.5-.4.6-.2.8-.4.6-.4.6-.1.9v2l.1.9.4.6.5.5.5.5.5.5.5.5.5.5.6.4.9.1h3l.9-.1q.4-.1.6-.4l.6-.4.8-.2q.4-.1.6-.4l.6-.4.8-.2q.4-.1.6-.4l.5-.5.4-.6.2-.8q.1-.4.4-.6l.4-.6.1-.9v-3l-.1-.9-.4-.6-.4-.6-.2-.8-.4-.6-.4-.6-.2-.8-.4-.6-.5-.5-.5-.5-.5-.5-.6-.4-.8-.2-.6-.4-.6-.4-.8-.2q-.4-.1-.6-.4l-.6-.4-.9-.1h-5l-.9.1-.6.4-.6.4-.8.2-.6.4-.6.4-.8.2-.6.4-.5.5-.5.5-.5.5-.4.6q-.1.4-.5.5l-.5.5-.2.8-.4.6-.4.6-.1.9-.1.9-.4.6-.4.6-.1.9v3l.1.9q.1.4.4.6l.4.6.1.9.1.9.4.6.4.6.2.8.4.6.5.5.5.5.5.5.5.5.5.5.5.5.5.5.6.4.8.2.6.4.6.4.9.1.9.1.6.4.6.4.9.1h2" id="path2455"/></g></g></svg>
